packages/kaspersky-hexa-ui-icons/src/iconsSVGs/32/FaceId.svg

<svg xmlns="http://www.w3.org/2000/svg" width="32" height="32" fill="none" viewBox="0 0 32 32"><path fill="#000" fill-rule="evenodd" d="M8 4C5.7909 4 4 5.7909 4 8v1c0 .5523.4477 1 1 1s1-.4477 1-1V8c0-1.1046.8954-2 2-2h1c.5523 0 1-.4477 1-1s-.4477-1-1-1zm15 0c-.5523 0-1 .4477-1 1s.4477 1 1 1h1c1.1046 0 2 .8954 2 2v1c0 .5523.4477 1 1 1s1-.4477 1-1V8c0-2.2091-1.7909-4-4-4zm-11 7c0-.5523-.4477-1-1-1s-1 .4477-1 1v2c0 .5523.4477 1 1 1s1-.4477 1-1zm5.5 0c0-.5523-.4477-1-1-1s-1 .4477-1 1v5H14c-.5523 0-1 .4477-1 1s.4477 1 1 1h2.5c.5523 0 1-.4477 1-1zm4.5 0c0-.5523-.4477-1-1-1s-1 .4477-1 1v2c0 .5523.4477 1 1 1s1-.4477 1-1zm-10.3753 9.2191c-.4313-.345-1.0606-.2751-1.4056.1562a.996.996 0 0 0-.2191.6241.998.998 0 0 0 .3753.7815c3.2884 2.6307 7.961 2.6307 11.2494 0A.998.998 0 0 0 22 20.9994a.996.996 0 0 0-.2191-.6241c-.345-.4313-.9743-.5012-1.4056-.1562-2.558 2.0464-6.1926 2.0464-8.7506 0M6 23c0-.5523-.4477-1-1-1s-1 .4477-1 1v1c0 2.2091 1.7909 4 4 4h1c.5523 0 1-.4477 1-1s-.4477-1-1-1H8c-1.1046 0-2-.8954-2-2zm22 0c0-.5523-.4477-1-1-1s-1 .4477-1 1v1c0 1.1046-.8954 2-2 2h-1c-.5523 0-1 .4477-1 1s.4477 1 1 1h1c2.2091 0 4-1.7909 4-4z"/></svg>

<svg width="32" height="32" viewBox="0 0 32 32" fill="none" xmlns="http://www.w3.org/2000/svg">
<path d="M8 4C5.79086 4 4 5.79086 4 8V9C4 9.55228 4.44772 10 5 10C5.55228 10 6 9.55228 6 9V8C6 6.89543 6.89543 6 8 6H9C9.55228 6 10 5.55228 10 5C10 4.44772 9.55228 4 9 4H8Z" fill="black"/>
<path d="M23 4C22.4477 4 22 4.44772 22 5C22 5.55228 22.4477 6 23 6H24C25.1046 6 26 6.89543 26 8V9C26 9.55228 26.4477 10 27 10C27.5523 10 28 9.55228 28 9V8C28 5.79086 26.2091 4 24 4H23Z" fill="black"/>
<path d="M6 23C6 22.4477 5.55228 22 5 22C4.44772 22 4 22.4477 4 23V24C4 26.2091 5.79086 28 8 28H9C9.55228 28 10 27.5523 10 27C10 26.4477 9.55228 26 9 26H8C6.89543 26 6 25.1046 6 24V23Z" fill="black"/>
<path d="M28 23C28 22.4477 27.5523 22 27 22C26.4477 22 26 22.4477 26 23V24C26 25.1046 25.1046 26 24 26H23C22.4477 26 22 26.4477 22 27C22 27.5523 22.4477 28 23 28H24C26.2091 28 28 26.2091 28 24V23Z" fill="black"/>
<path d="M12 11C12 10.4477 11.5523 10 11 10C10.4477 10 10 10.4477 10 11V13C10 13.5523 10.4477 14 11 14C11.5523 14 12 13.5523 12 13V11Z" fill="black"/>
<path d="M17.5 11C17.5 10.4477 17.0523 10 16.5 10C15.9477 10 15.5 10.4477 15.5 11V16H14C13.4477 16 13 16.4477 13 17C13 17.5523 13.4477 18 14 18H16.5C17.0523 18 17.5 17.5523 17.5 17V11Z" fill="black"/>
<path d="M22 11C22 10.4477 21.5523 10 21 10C20.4477 10 20 10.4477 20 11V13C20 13.5523 20.4477 14 21 14C21.5523 14 22 13.5523 22 13V11Z" fill="black"/>
<path d="M11.6247 20.2191C11.1934 19.8741 10.5641 19.944 10.2191 20.3753C9.87412 20.8066 9.94404 21.4359 10.3753 21.7809C13.6637 24.4116 18.3363 24.4116 21.6247 21.7809C22.056 21.4359 22.1259 20.8066 21.7809 20.3753C21.4359 19.944 20.8066 19.8741 20.3753 20.2191C17.8173 22.2655 14.1827 22.2655 11.6247 20.2191Z" fill="black"/>
</svg>
